germany/municipalities/07143074.svg

<?xml version="1.0" encoding="UTF-8" standalone="no"?>
<!-- Created with Inkscape (http://www.inkscape.org/) -->

<svg
   xmlns:dc="http://purl.org/dc/elements/1.1/"
   xmlns:cc="http://creativecommons.org/ns#"
   xmlns:rdf="http://www.w3.org/1999/02/22-rdf-syntax-ns#"
   xmlns:svg="http://www.w3.org/2000/svg"
   xmlns="http://www.w3.org/2000/svg"
   version="1.1"
   width="719.28125"
   height="825.59375"
   id="svg3092">
  <defs
     id="defs3094" />
  <metadata
     id="metadata3097">
    <rdf:RDF>
      <cc:Work
         rdf:about="">
        <dc:format>image/svg+xml</dc:format>
        <dc:type
           rdf:resource="http://purl.org/dc/dcmitype/StillImage" />
        <dc:title></dc:title>
      </cc:Work>
    </rdf:RDF>
  </metadata>
  <g
     transform="translate(9.64321,-119.55413)"
     id="layer1">
    <g
       transform="translate(-4.33071,46.929131)"
       id="g3955"
       style="display:inline">
      <path
         d="m 354.32812,318.03125 -354.32812,0 0,220.5625 c 0,196.93685 158.84229,354.3125 354.34375,354.3125"
         transform="translate(0,-2.5390623e-6)"
         id="path3844"
         style="fill:#ffffff;fill-opacity:1;fill-rule:nonzero;stroke:none;display:inline" />
      <path
         d="m 354.34375,892.90625 c 195.5014,0 354.36977,-159.43062 354.34375,-354.3125 l -0.0312,-220.5625 -354.32813,0"
         transform="translate(0,-2.5390623e-6)"
         id="path3840"
         style="fill:#ed1c24;fill-opacity:1;fill-rule:nonzero;stroke:none;display:inline" />
      <path
         d="m 0,318.03125 708.65625,0 L 708.625,77.9375 0,77.9375 0,318.03125 z"
         id="path3264"
         style="fill:#fff200;fill-opacity:1;fill-rule:nonzero;stroke:none;display:inline" />
      <path
         d="m 125.125,318.03125 0,169.1875 -125.125,0 0,51.375 c 0,17.62914 1.2919601,34.93315 3.75,51.84375 l 121.375,0 0,218.71875 c 30.65484,25.9508 65.80744,46.74022 104.09375,61.125 l 0,-279.84375 125.09375,0 0,-103.21875 -125.09375,0 0,-169.1875 -104.09375,0 z"
         id="path3848"
         style="fill:#ed1c24;fill-opacity:1;fill-rule:nonzero;stroke:#000000;stroke-width:5.31496048;stroke-miterlimit:4;stroke-dasharray:none;display:inline" />
      <path
         d="m 84.75,146.0625 c -29.005915,0.25028 -55.46242,20.77244 -84.46875,20.96875 -0.082008,5.6e-4 -0.167537,2e-4 -0.25,0 L 0.0625,256.6875 c 25.64816,-0.8469 56.45191,-23.86899 86.15625,-23.90625 30.57243,-0.0384 57.95892,23.8506 88.53125,23.9375 31.22878,0.0887 59.33365,-24.0005 90.5625,-23.9375 30.75985,0.0621 58.3651,23.9124 89.125,23.9375 30.94744,0.0252 58.74022,-24.04017 89.6875,-23.9375 30.19763,0.10019 57.17731,23.8619 87.375,23.9375 30.75982,0.077 58.36516,-24.0015 89.125,-23.9375 30.29136,0.063 58.50753,23.69544 87.65625,23.9375 0.0965,8e-4 0.24623,-7.9e-4 0.34375,0 l 0,-89.6875 c -0.11306,3.5e-4 -0.2317,0.001 -0.34375,0 -29.51927,-0.26294 -56.64677,-20.77348 -86.21875,-20.96875 -31.27255,-0.2065 -60.16512,21.19967 -91.4375,20.96875 -29.38321,-0.21697 -56.24171,-20.762 -85.625,-20.96875 -31.17784,-0.21938 -59.97817,21.15173 -91.15625,20.96875 -29.66645,-0.1741 -56.83361,-20.78433 -86.5,-20.96875 -31.27263,-0.19441 -60.16427,20.97965 -91.4375,20.96875 C 144.72764,167.0204 115.92745,145.79349 84.75,146.0625 z"
         id="rect3853"
         style="fill:#0072bc;fill-opacity:1;stroke:#000000;stroke-width:5.31496048;stroke-linecap:round;stroke-linejoin:round;stroke-miterlimit:4;stroke-opacity:1;display:inline" />
      <path
         d="M 708.66142,538.58266 708.63063,77.952734 0,77.952734 0.16129266,537.78776 C 0.33805266,734.72453 159.44882,892.91337 354.33071,892.91337 c 194.88189,0 354.33071,-158.05311 354.33071,-354.33071 z"
         id="path3185"
         style="fill:none;stroke:#000000;stroke-width:10.62992096;stroke-linecap:square;stroke-linejoin:miter;stroke-miterlimit:4;stroke-opacity:1;stroke-dasharray:none;display:inline" />
      <path
         d="m 0.09375,318.03125 708.5625,0"
         id="rect3832"
         style="fill:none;stroke:#000000;stroke-width:7.08661413;stroke-linecap:round;stroke-linejoin:round;stroke-miterlimit:4;stroke-opacity:1;stroke-dasharray:none;display:inline" />
      <path
         d="m 354.33071,892.91336 0,-575.14518"
         id="path3861"
         style="fill:none;stroke:#000000;stroke-width:7.08661413;stroke-linecap:butt;stroke-linejoin:miter;stroke-miterlimit:4;stroke-opacity:1;stroke-dasharray:none" />
      <path
         d="m 480.38482,602.65302 1e-5,155.38717 c 0,9.08935 -25.72713,9.19489 -25.72713,0 l -10e-6,-155.38717 z"
         id="rect3863"
         style="fill:#ffff00;fill-opacity:1;stroke:#000000;stroke-width:3.54330707;stroke-linecap:round;stroke-linejoin:round;stroke-miterlimit:4;stroke-opacity:1;stroke-dasharray:none" />
      <path
         d="m 452.46093,436.74977 c 0,-24.48089 28.60651,-24.39265 35.04654,-6.69831 65.11328,2.27375 88.86057,-7.03497 95.97729,-21.00026 31.10888,57.48837 34.3828,152.18494 -19.55225,214.34825 -5.15054,-17.20528 -16.56697,-28.81601 -32.58424,-36.31885 15.79813,-33.3866 4.96015,-61.30265 -16.46511,-61.26355 -13.72452,0.025 -30.57923,18.37341 -30.57923,27.08446 l 0,45.94035 c 0,13.41382 -31.843,13.94295 -31.843,0 z"
         id="rect3865"
         style="fill:#ffff00;fill-opacity:1;stroke:#000000;stroke-width:3.54330683;stroke-linecap:round;stroke-linejoin:round;stroke-miterlimit:4;stroke-opacity:1" />
      <path
         d="m 472.87338,453.28294 c 6.15773,4.02967 12.65175,6.15366 20.9811,-1.22007"
         id="path3869"
         style="fill:none;stroke:#000000;stroke-width:1.77165353;stroke-linecap:round;stroke-linejoin:miter;stroke-miterlimit:4;stroke-opacity:1;stroke-dasharray:none" />
      <path
         d="m 452.445,435.38992 c -0.0443,13.77783 21.91938,11.13531 45.12182,9.52431 36.08276,-2.5053 60.73727,-6.08562 83.8753,-32.60435"
         id="path3871"
         style="fill:none;stroke:#000000;stroke-width:3.54330707;stroke-linecap:butt;stroke-linejoin:miter;stroke-miterlimit:4;stroke-opacity:1;stroke-dasharray:none" />
      <path
         d="m 454.79478,426.09093 c -7.25441,14.80581 42.63169,10.86433 27.65213,-3.6072"
         id="path3873"
         style="fill:none;stroke:#000000;stroke-width:3.54330707;stroke-linecap:butt;stroke-linejoin:miter;stroke-miterlimit:4;stroke-opacity:1;stroke-dasharray:none" />
      <path
         d="m 472.95868,460.80498 c 5.70856,4.52289 12.50585,3.91318 20.13564,-0.6212"
         id="path3886"
         style="fill:none;stroke:#000000;stroke-width:1.77165353;stroke-linecap:round;stroke-linejoin:miter;stroke-miterlimit:4;stroke-opacity:1;stroke-dasharray:none" />
      <path
         d="m 473.12928,468.29168 c 5.54931,3.68113 12.28678,3.59164 19.20895,-0.41527"
         id="path3888"
         style="fill:none;stroke:#000000;stroke-width:1.77165353;stroke-linecap:round;stroke-linejoin:miter;stroke-miterlimit:4;stroke-opacity:1;stroke-dasharray:none" />
      <path
         d="m 474.00601,475.77838 c 5.95045,3.28719 11.19845,3.74079 17.97336,-0.10633"
         id="path3890"
         style="fill:none;stroke:#000000;stroke-width:1.77165353;stroke-linecap:round;stroke-linejoin:miter;stroke-miterlimit:4;stroke-opacity:1;stroke-dasharray:none" />
      <path
         d="m 475.52979,483.51492 c 4.99084,2.89206 10.37662,2.22972 15.91405,0.20252"
         id="path3894"
         style="fill:none;stroke:#000000;stroke-width:1.77165353;stroke-linecap:round;stroke-linejoin:miter;stroke-miterlimit:4;stroke-opacity:1;stroke-dasharray:none" />
      <path
         d="m 476.59174,491.67241 c 4.43263,1.12659 8.15656,1.71423 14.06067,-0.14902"
         id="path3896"
         style="fill:none;stroke:#000000;stroke-width:1.77165353;stroke-linecap:round;stroke-linejoin:miter;stroke-miterlimit:4;stroke-opacity:1;stroke-dasharray:none" />
      <path
         d="m 478.22152,500.1181 c 3.72816,0.7924 7.4813,0.97471 10.76577,0.20253"
         id="path3898"
         style="fill:none;stroke:#000000;stroke-width:1.77165353;stroke-linecap:round;stroke-linejoin:miter;stroke-miterlimit:4;stroke-opacity:1;stroke-dasharray:none" />
      <path
         d="m 480.3838,508.75509 c 2.39015,0.48787 5.21572,0.32562 7.77977,-0.10637"
         id="path3900"
         style="fill:none;stroke:#000000;stroke-width:1.77165353;stroke-linecap:round;stroke-linejoin:miter;stroke-miterlimit:4;stroke-opacity:1;stroke-dasharray:none" />
      <path
         d="m 481.63705,516.57995 c 2.07359,0.18303 3.66385,0.16931 5.41156,-0.003"
         id="path3904"
         style="fill:none;stroke:#000000;stroke-width:1.77165353;stroke-linecap:round;stroke-linejoin:miter;stroke-miterlimit:4;stroke-opacity:1;stroke-dasharray:none" />
      <path
         d="m 483.04253,523.56003 c 1.2513,0.16183 2.10607,0.1738 3.16714,-0.0364"
         id="path3906"
         style="fill:none;stroke:#000000;stroke-width:1.77165353;stroke-linecap:round;stroke-linejoin:miter;stroke-miterlimit:4;stroke-opacity:1;stroke-dasharray:none" />
    </g>
  </g>
</svg>

<svg xmlns="http://www.w3.org/2000/svg" width="719.281" height="825.594"><g style="display:inline"><path d="M354.328 318.031H0v220.563C0 735.53 158.842 892.906 354.344 892.906" transform="translate(5.313 -72.625)" style="fill:#fff;fill-opacity:1;fill-rule:nonzero;stroke:none;display:inline"/><path d="M354.344 892.906c195.501 0 354.37-159.43 354.344-354.312l-.032-220.563H354.328" transform="translate(5.313 -72.625)" style="fill:#ed1c24;fill-opacity:1;fill-rule:nonzero;stroke:none;display:inline"/><path d="M0 318.031h708.656l-.031-240.094H0v240.094z" style="fill:#fff200;fill-opacity:1;fill-rule:nonzero;stroke:none;display:inline" transform="translate(5.313 -72.625)"/><path d="M125.125 318.031V487.22H0v51.375c0 17.629 1.292 34.933 3.75 51.843h121.375v218.72a353.599 353.599 0 0 0 104.094 61.124V590.438h125.094v-103.22H229.219V318.032H125.125z" style="fill:#ed1c24;fill-opacity:1;fill-rule:nonzero;stroke:#000;stroke-width:5.31496048;stroke-miterlimit:4;stroke-dasharray:none;display:inline" transform="translate(5.313 -72.625)"/><path d="M84.75 146.063c-29.006.25-55.462 20.772-84.469 20.968h-.25l.032 89.656c25.648-.846 56.451-23.868 86.156-23.906 30.572-.038 57.959 23.85 88.531 23.938 31.229.088 59.334-24 90.563-23.938 30.76.062 58.365 23.913 89.125 23.938 30.947.025 58.74-24.04 89.687-23.938 30.198.1 57.177 23.862 87.375 23.938 30.76.077 58.365-24.002 89.125-23.938 30.291.063 58.508 23.696 87.656 23.938h.344V167.03h-.344c-29.519-.263-56.647-20.773-86.218-20.969-31.273-.206-60.166 21.2-91.438 20.97-29.383-.218-56.242-20.763-85.625-20.97-31.178-.219-59.978 21.152-91.156 20.97-29.667-.175-56.834-20.785-86.5-20.97-31.273-.194-60.165 20.98-91.438 20.97-31.178-.012-59.979-21.239-91.156-20.97z" style="fill:#0072bc;fill-opacity:1;stroke:#000;stroke-width:5.31496048;stroke-linecap:round;stroke-linejoin:round;stroke-miterlimit:4;stroke-opacity:1;display:inline" transform="translate(5.313 -72.625)"/><path d="m708.661 538.583-.03-460.63H0l.161 459.835c.177 196.937 159.288 355.125 354.17 355.125s354.33-158.053 354.33-354.33z" style="fill:none;stroke:#000;stroke-width:10.62992096;stroke-linecap:square;stroke-linejoin:miter;stroke-miterlimit:4;stroke-opacity:1;stroke-dasharray:none;display:inline" transform="translate(5.313 -72.625)"/><path d="M.094 318.031h708.562" style="fill:none;stroke:#000;stroke-width:7.08661413;stroke-linecap:round;stroke-linejoin:round;stroke-miterlimit:4;stroke-opacity:1;stroke-dasharray:none;display:inline" transform="translate(5.313 -72.625)"/><path d="M354.33 892.913V317.768" style="fill:none;stroke:#000;stroke-width:7.08661413;stroke-linecap:butt;stroke-linejoin:miter;stroke-miterlimit:4;stroke-opacity:1;stroke-dasharray:none" transform="translate(5.313 -72.625)"/><path d="M480.385 602.653V758.04c0 9.09-25.727 9.195-25.727 0V602.653z" style="fill:#ff0;fill-opacity:1;stroke:#000;stroke-width:3.54330707;stroke-linecap:round;stroke-linejoin:round;stroke-miterlimit:4;stroke-opacity:1;stroke-dasharray:none" transform="translate(5.313 -72.625)"/><path d="M452.46 436.75c0-24.481 28.607-24.393 35.047-6.699 65.114 2.274 88.861-7.035 95.978-21 31.109 57.489 34.383 152.185-19.552 214.348-5.151-17.205-16.567-28.816-32.585-36.318 15.798-33.387 4.96-61.303-16.465-61.264-13.724.025-30.58 18.373-30.58 27.085v45.94c0 13.414-31.842 13.943-31.842 0z" style="fill:#ff0;fill-opacity:1;stroke:#000;stroke-width:3.54330683;stroke-linecap:round;stroke-linejoin:round;stroke-miterlimit:4;stroke-opacity:1" transform="translate(5.313 -72.625)"/><path d="M472.873 453.283c6.158 4.03 12.652 6.154 20.981-1.22" style="fill:none;stroke:#000;stroke-width:1.77165353;stroke-linecap:round;stroke-linejoin:miter;stroke-miterlimit:4;stroke-opacity:1;stroke-dasharray:none" transform="translate(5.313 -72.625)"/><path d="M452.445 435.39c-.044 13.778 21.92 11.135 45.122 9.524 36.083-2.505 60.737-6.085 83.875-32.604" style="fill:none;stroke:#000;stroke-width:3.54330707;stroke-linecap:butt;stroke-linejoin:miter;stroke-miterlimit:4;stroke-opacity:1;stroke-dasharray:none" transform="translate(5.313 -72.625)"/><path d="M454.795 426.09c-7.255 14.807 42.631 10.865 27.652-3.606" style="fill:none;stroke:#000;stroke-width:3.54330707;stroke-linecap:butt;stroke-linejoin:miter;stroke-miterlimit:4;stroke-opacity:1;stroke-dasharray:none" transform="translate(5.313 -72.625)"/><path d="M472.959 460.805c5.708 4.523 12.506 3.913 20.135-.621M473.13 468.292c5.549 3.68 12.286 3.591 19.208-.416M474.006 475.778c5.95 3.288 11.198 3.741 17.973-.106M475.53 483.515c4.99 2.892 10.376 2.23 15.914.202M476.592 491.672c4.432 1.127 8.156 1.715 14.06-.149M478.222 500.118c3.728.793 7.48.975 10.765.203M480.384 508.755c2.39.488 5.216.326 7.78-.106M481.637 516.58c2.074.183 3.664.17 5.412-.003M483.043 523.56c1.25.162 2.106.174 3.167-.036" style="fill:none;stroke:#000;stroke-width:1.77165353;stroke-linecap:round;stroke-linejoin:miter;stroke-miterlimit:4;stroke-opacity:1;stroke-dasharray:none" transform="translate(5.313 -72.625)"/></g></svg>
